X: 39432
T: Tarantella
R: jig
M: 6/8
K: Gmajor
ded BGB|ded AFA|cdc AFA|cdc BGB|
ded BGB|ded AFA|ABc dcB|ABA G3:|
|:[G2d2] [Gd] [G2B2] [GB]|[G2d2] [Gd] [F3A3]|[F2c2] [Fc] [F2A2] [FA]|[F3d3] [G3B3]|
[G2d2] [Gd] [G2B2] [GB]|[G2d2] [Gd] [F3A3]|ABc dcB|ABA G3:|
|:ded BGB|ded [A3f3]|[A2f2] [Af] [A3e3]|[A3f3] [B3g3]|
[B2g2] [Bg] [B3d3]|[B3g3] [A3f3]|[A2f2] e fed|cBA G3:|

